assets/sankey-spglib-vs-aflow-spacegroups.svg

<svg xmlns="http://www.w3.org/2000/svg" width="700" height="500" class="main-svg"><path d="M0 0h700v500H0z" style="fill:#fff;fill-opacity:1"/><g class="sankey" style="box-sizing:content-box;position:absolute;left:0;shape-rendering:geometricprecision;pointer-events:auto"><g class="sankey-links" style="fill:none"><path d="M30 0h480v123.094H30Zm0 204.611h480v70.676H30Zm0 99.248h480V320H30Zm0-28.572c240 0 240 20 480 20v8.572c-240 0-240-20-480-20Zm0-149.708c240 0 240 40.938 480 40.938v8.065c-240 0-240-40.939-480-40.939Zm0 49.003h480v5.376H30Zm0 25.376c240 0 240-20 480-20v4.653c-240 0-240 20-480 20Z" class="sankey-link" style="stroke:#444;stroke-opacity:1;fill:#000;fill-opacity:.2;stroke-width:0;opacity:1" transform="translate(80 100)"/><path d="M30 123.094c240 0 240 20 480 20v2.485c-240 0-240-20-480-20Z" class="sankey-link" style="stroke:#444;stroke-opacity:1;fill:#000;fill-opacity:.2;stroke-width:0;opacity:1" transform="translate(80 100)"/><path d="M30 153.643c240 0 240-8.064 480-8.064v.938c-240 0-240 8.065-480 8.065Z" class="sankey-link" style="stroke:#000;stroke-opacity:.2;fill:#000;fill-opacity:.2;stroke-width:1;opacity:1" transform="translate(80 100)"/></g><g class="sankey-node-set" style="cursor:move"><g class="sankey-node" style="opacity:1"><path d="M0 0h30v133.643H0z" class="node-rect" style="stroke-width:.5;stroke:#000;stroke-opacity:1;fill:#636efa;fill-opacity:.8" transform="translate(80 100)"/><text class="node-label" data-notex="1" style="cursor:default;font-family:&quot;Open Sans&quot;,verdana,arial,sans-serif;font-size:12px;fill:#2a3f5f;fill-opacity:1;white-space:pre;text-shadow:#fff 1px 1px 1px,#fff -1px -1px 1px,#fff 1px -1px 1px,#fff -1px 1px 1px" transform="translate(113.25 171.022)">25: 10540</text></g><g class="sankey-node" style="opacity:1"><path d="M0 0h30v83.901H0z" class="node-rect" style="stroke-width:.5;stroke:#000;stroke-opacity:1;fill:#ef553b;fill-opacity:.8" transform="translate(80 299.958)"/><text class="node-label" data-notex="1" style="cursor:default;font-family:&quot;Open Sans&quot;,verdana,arial,sans-serif;font-size:12px;fill:#2a3f5f;fill-opacity:1;white-space:pre;text-shadow:#fff 1px 1px 1px,#fff -1px -1px 1px,#fff 1px -1px 1px,#fff -1px 1px 1px" transform="translate(113.25 346.109)">99: 6617</text></g><g class="sankey-node" style="opacity:1"><path d="M0 0h30v16.141H0z" class="node-rect" style="stroke-width:.5;stroke:#000;stroke-opacity:1;fill:#00cc96;fill-opacity:.8" transform="translate(80 403.859)"/><text class="node-label" data-notex="1" style="cursor:default;font-family:&quot;Open Sans&quot;,verdana,arial,sans-serif;font-size:12px;fill:#2a3f5f;fill-opacity:1;white-space:pre;text-shadow:#fff 1px 1px 1px,#fff -1px -1px 1px,#fff 1px -1px 1px,#fff -1px 1px 1px" transform="translate(113.25 416.13)">221: 1273</text></g><g class="sankey-node" style="opacity:1"><path d="M0 0h30v5.376H0z" class="node-rect" style="stroke-width:.5;stroke:#000;stroke-opacity:1;fill:#19d3f3;fill-opacity:.8" transform="translate(80 274.582)"/><text class="node-label" data-notex="1" style="cursor:default;font-family:&quot;Open Sans&quot;,verdana,arial,sans-serif;font-size:12px;fill:#2a3f5f;fill-opacity:1;white-space:pre;text-shadow:#fff 1px 1px 1px,#fff -1px -1px 1px,#fff 1px -1px 1px,#fff -1px 1px 1px" transform="translate(113.25 281.47)">123: 424</text></g><g class="sankey-node" style="opacity:1"><path d="M0 0h30v.938H0z" class="node-rect" style="stroke-width:.5;stroke:#000;stroke-opacity:1;fill:#ff97ff;fill-opacity:.8" transform="translate(80 253.643)"/><text class="node-label" data-notex="1" style="cursor:default;font-family:&quot;Open Sans&quot;,verdana,arial,sans-serif;font-size:12px;fill:#2a3f5f;fill-opacity:1;white-space:pre;text-shadow:#fff 1px 1px 1px,#fff -1px -1px 1px,#fff 1px -1px 1px,#fff -1px 1px 1px" transform="translate(113.25 258.312)">47: 74</text></g><g class="sankey-node" style="opacity:1"><path d="M0 0h30v123.094H0z" class="node-rect" style="stroke-width:.5;stroke:#000;stroke-opacity:1;fill:#fecb52;fill-opacity:.8" transform="translate(590 100)"/><text class="node-label" data-notex="1" style="cursor:default;font-family:&quot;Open Sans&quot;,verdana,arial,sans-serif;font-size:12px;fill:#2a3f5f;fill-opacity:1;white-space:pre;text-shadow:#fff 1px 1px 1px,#fff -1px -1px 1px,#fff 1px -1px 1px,#fff -1px 1px 1px" text-anchor="end" transform="translate(586.75 165.747)">25: 9708</text></g><g class="sankey-node" style="opacity:1"><path d="M0 0h30v70.676H0z" class="node-rect" style="stroke-width:.5;stroke:#000;stroke-opacity:1;fill:#636efa;fill-opacity:.8" transform="translate(590 304.611)"/><text class="node-label" data-notex="1" style="cursor:default;font-family:&quot;Open Sans&quot;,verdana,arial,sans-serif;font-size:12px;fill:#2a3f5f;fill-opacity:1;white-space:pre;text-shadow:#fff 1px 1px 1px,#fff -1px -1px 1px,#fff 1px -1px 1px,#fff -1px 1px 1px" text-anchor="end" transform="translate(586.75 344.15)">99: 5574</text></g><g class="sankey-node" style="opacity:1"><path d="M0 0h30v24.713H0z" class="node-rect" style="stroke-width:.5;stroke:#000;stroke-opacity:1;fill:#ef553b;fill-opacity:.8" transform="translate(590 395.287)"/><text class="node-label" data-notex="1" style="cursor:default;font-family:&quot;Open Sans&quot;,verdana,arial,sans-serif;font-size:12px;fill:#2a3f5f;fill-opacity:1;white-space:pre;text-shadow:#fff 1px 1px 1px,#fff -1px -1px 1px,#fff 1px -1px 1px,#fff -1px 1px 1px" text-anchor="end" transform="translate(586.75 411.843)">221: 1949</text></g><g class="sankey-node" style="opacity:1"><path d="M0 0h30v18.094H0z" class="node-rect" style="stroke-width:.5;stroke:#000;stroke-opacity:1;fill:#ab63fa;fill-opacity:.8" transform="translate(590 266.517)"/><text class="node-label" data-notex="1" style="cursor:default;font-family:&quot;Open Sans&quot;,verdana,arial,sans-serif;font-size:12px;fill:#2a3f5f;fill-opacity:1;white-space:pre;text-shadow:#fff 1px 1px 1px,#fff -1px -1px 1px,#fff 1px -1px 1px,#fff -1px 1px 1px" text-anchor="end" transform="translate(586.75 279.764)">123: 1427</text></g><g class="sankey-node" style="opacity:1"><path d="M0 0h30v3.423H0z" class="node-rect" style="stroke-width:.5;stroke:#000;stroke-opacity:1;fill:#ff6692;fill-opacity:.8" transform="translate(590 243.094)"/><text class="node-label" data-notex="1" style="cursor:default;font-family:&quot;Open Sans&quot;,verdana,arial,sans-serif;font-size:12px;fill:#2a3f5f;fill-opacity:1;white-space:pre;text-shadow:#fff 1px 1px 1px,#fff -1px -1px 1px,#fff 1px -1px 1px,#fff -1px 1px 1px" text-anchor="end" transform="translate(586.75 249.006)">47: 270</text></g></g></g><g class="infolayer"><g class="g-gtitle"><text x="350" y="50" class="gtitle" dy="0em" style="font-family:&quot;Open Sans&quot;,verdana,arial,sans-serif;font-size:17px;fill:#2a3f5f;opacity:1;font-weight:400;white-space:pre" text-anchor="middle"><tspan x="350" y="50" class="line" dy="0em">Spacegroups as determined by Spglib vs Aflow</tspan><tspan x="350" y="50" class="line" dy="1.3em">for the Matbench Perovskites dataset</tspan></text></g></g></svg>

<?xml version="1.0" encoding="UTF-8" standalone="no"?>
<!DOCTYPE svg PUBLIC "-//W3C//DTD SVG 1.1//EN" "http://www.w3.org/Graphics/SVG/1.1/DTD/svg11.dtd">
<svg width="100%" height="100%" viewBox="0 0 700 500" version="1.1" xmlns="http://www.w3.org/2000/svg" xmlns:xlink="http://www.w3.org/1999/xlink" xml:space="preserve" xmlns:serif="http://www.serif.com/" style="fill-rule:evenodd;clip-rule:evenodd;">
    <rect x="0" y="0" width="700" height="500" style="fill:white;fill-rule:nonzero;"/>
    <g>
        <g transform="matrix(1.25146,0,0,1.25146,-88.0112,-57.9345)">
            <g transform="matrix(1,0,0,1,80,100)">
                <path d="M30,0L510,0L510,123.094L30,123.094L30,0ZM30,204.611L510,204.611L510,275.287L30,275.287L30,204.611ZM30,303.859L510,303.859L510,320L30,320L30,303.859ZM30,275.287C270,275.287 270,295.287 510,295.287L510,303.859C270,303.859 270,283.859 30,283.859L30,275.287ZM30,125.579C270,125.579 270,166.517 510,166.517L510,174.582C270,174.582 270,133.643 30,133.643L30,125.579ZM30,174.582L510,174.582L510,179.958L30,179.958L30,174.582ZM30,199.958C270,199.958 270,179.958 510,179.958L510,184.611C270,184.611 270,204.611 30,204.611L30,199.958Z" style="fill-opacity:0.2;fill-rule:nonzero;"/>
            </g>
            <g transform="matrix(1,0,0,1,80,100)">
                <path d="M30,123.094C270,123.094 270,143.094 510,143.094L510,145.579C270,145.579 270,125.579 30,125.579L30,123.094Z" style="fill-opacity:0.2;fill-rule:nonzero;"/>
            </g>
            <g transform="matrix(1,0,0,1,80,100)">
                <path d="M30,153.643C270,153.643 270,145.579 510,145.579L510,146.517C270,146.517 270,154.582 30,154.582L30,153.643Z" style="fill-opacity:0.2;fill-rule:nonzero;stroke:black;stroke-opacity:0.2;stroke-width:1px;"/>
            </g>
        </g>
        <g transform="matrix(1.25146,0,0,1.25146,-88.0112,-57.9345)">
            <g>
                <g transform="matrix(1,0,0,1,80,100)">
                    <rect x="0" y="0" width="30" height="133.643" style="fill:rgb(99,110,250);fill-opacity:0.8;fill-rule:nonzero;stroke:black;stroke-width:0.5px;"/>
                </g>
                <g transform="matrix(1,0,0,1,113.25,171.022)">
                    <text x="0px" y="0px" style="font-family:'LucidaGrande', 'Lucida Grande', sans-serif;font-weight:500;font-size:12px;fill:rgb(42,63,95);">25: 10540</text>
                </g>
            </g>
            <g>
                <g transform="matrix(1,0,0,1,80,299.958)">
                    <rect x="0" y="0" width="30" height="83.901" style="fill:rgb(239,85,59);fill-opacity:0.8;fill-rule:nonzero;stroke:black;stroke-width:0.5px;"/>
                </g>
                <g transform="matrix(1,0,0,1,113.25,346.109)">
                    <text x="0px" y="0px" style="font-family:'LucidaGrande', 'Lucida Grande', sans-serif;font-weight:500;font-size:12px;fill:rgb(42,63,95);">99: 6617</text>
                </g>
            </g>
            <g>
                <g transform="matrix(1,0,0,1,80,403.859)">
                    <rect x="0" y="0" width="30" height="16.141" style="fill:rgb(0,204,150);fill-opacity:0.8;fill-rule:nonzero;stroke:black;stroke-width:0.5px;"/>
                </g>
                <g transform="matrix(1,0,0,1,113.25,416.13)">
                    <text x="0px" y="0px" style="font-family:'LucidaGrande', 'Lucida Grande', sans-serif;font-weight:500;font-size:12px;fill:rgb(42,63,95);">221: 1273</text>
                </g>
            </g>
            <g>
                <g transform="matrix(1,0,0,1,80,274.582)">
                    <rect x="0" y="0" width="30" height="5.376" style="fill:rgb(25,211,243);fill-opacity:0.8;fill-rule:nonzero;stroke:black;stroke-width:0.5px;"/>
                </g>
                <g transform="matrix(1,0,0,1,113.25,281.47)">
                    <text x="0px" y="0px" style="font-family:'LucidaGrande', 'Lucida Grande', sans-serif;font-weight:500;font-size:12px;fill:rgb(42,63,95);">123: 424</text>
                </g>
            </g>
            <g>
                <g transform="matrix(1,0,0,1,80,253.643)">
                    <rect x="0" y="0" width="30" height="0.938" style="fill:rgb(255,151,255);fill-opacity:0.8;fill-rule:nonzero;stroke:black;stroke-width:0.5px;"/>
                </g>
                <g transform="matrix(1,0,0,1,113.25,258.312)">
                    <text x="0px" y="0px" style="font-family:'LucidaGrande', 'Lucida Grande', sans-serif;font-weight:500;font-size:12px;fill:rgb(42,63,95);">47: 74</text>
                </g>
            </g>
            <g>
                <g transform="matrix(1,0,0,1,590,100)">
                    <rect x="0" y="0" width="30" height="123.094" style="fill:rgb(254,203,82);fill-opacity:0.8;fill-rule:nonzero;stroke:black;stroke-width:0.5px;"/>
                </g>
                <g transform="matrix(1,0,0,1,586.75,165.747)">
                    <text x="-53.121px" y="0px" style="font-family:'LucidaGrande', 'Lucida Grande', sans-serif;font-weight:500;font-size:12px;fill:rgb(42,63,95);">25: 9708</text>
                </g>
            </g>
            <g>
                <g transform="matrix(1,0,0,1,590,304.611)">
                    <rect x="0" y="0" width="30" height="70.676" style="fill:rgb(99,110,250);fill-opacity:0.8;fill-rule:nonzero;stroke:black;stroke-width:0.5px;"/>
                </g>
                <g transform="matrix(1,0,0,1,586.75,344.15)">
                    <text x="-53.121px" y="0px" style="font-family:'LucidaGrande', 'Lucida Grande', sans-serif;font-weight:500;font-size:12px;fill:rgb(42,63,95);">99: 5574</text>
                </g>
            </g>
            <g>
                <g transform="matrix(1,0,0,1,590,395.287)">
                    <rect x="0" y="0" width="30" height="24.713" style="fill:rgb(239,85,59);fill-opacity:0.8;fill-rule:nonzero;stroke:black;stroke-width:0.5px;"/>
                </g>
                <g transform="matrix(1,0,0,1,586.75,411.843)">
                    <text x="-60.709px" y="0px" style="font-family:'LucidaGrande', 'Lucida Grande', sans-serif;font-weight:500;font-size:12px;fill:rgb(42,63,95);">221: 1949</text>
                </g>
            </g>
            <g>
                <g transform="matrix(1,0,0,1,590,266.517)">
                    <rect x="0" y="0" width="30" height="18.094" style="fill:rgb(171,99,250);fill-opacity:0.8;fill-rule:nonzero;stroke:black;stroke-width:0.5px;"/>
                </g>
                <g transform="matrix(1,0,0,1,586.75,279.764)">
                    <text x="-60.709px" y="0px" style="font-family:'LucidaGrande', 'Lucida Grande', sans-serif;font-weight:500;font-size:12px;fill:rgb(42,63,95);">123: 1427</text>
                </g>
            </g>
            <g>
                <g transform="matrix(1,0,0,1,590,243.094)">
                    <rect x="0" y="0" width="30" height="3.423" style="fill:rgb(255,102,146);fill-opacity:0.8;fill-rule:nonzero;stroke:black;stroke-width:0.5px;"/>
                </g>
                <g transform="matrix(1,0,0,1,586.75,249.006)">
                    <text x="-45.533px" y="0px" style="font-family:'LucidaGrande', 'Lucida Grande', sans-serif;font-weight:500;font-size:12px;fill:rgb(42,63,95);">47: 270</text>
                </g>
            </g>
        </g>
    </g>
    <g transform="matrix(1.25146,0,0,1.25146,-88.0112,-26.9038)">
        <g>
            <g>
                <g transform="matrix(1,0,0,1,350,50)">
                    <text x="-192.217px" y="0px" style="font-family:'LucidaGrande', 'Lucida Grande', sans-serif;font-weight:500;font-size:17px;fill:rgb(42,63,95);">Spacegroups as determined by Spglib vs Aﬂow</text>
                </g>
                <g transform="matrix(1,0,0,1,350,65.6)">
                    <text x="-152.66px" y="0px" style="font-family:'LucidaGrande', 'Lucida Grande', sans-serif;font-weight:500;font-size:17px;fill:rgb(42,63,95);">for the Matbench Perovskites dataset</text>
                </g>
            </g>
        </g>
    </g>
</svg>
